assets/about/graphic.svg

<svg width="251" height="185" viewBox="0 0 251 185" fill="none" xmlns="http://www.w3.org/2000/svg">
<g clip-path="url(#clip0_532_1427)">
<path d="M136.255 135.325H132.962V133.123H134.054V132.031H136.255V135.325Z" fill="#37352F"/>
<path d="M128.509 135.324H124.055V133.123H128.509V135.324ZM119.602 135.324H115.148V133.123H119.602V135.324ZM110.695 135.324H106.241V133.123H110.695V135.324ZM101.787 135.324H97.3337V133.123H101.787V135.324ZM92.8801 135.324H88.4264V133.123H92.8801V135.324ZM83.9899 135.324H79.5363V133.123H83.9899V135.324ZM75.0826 135.324H70.6119V133.123H75.0656L75.0826 135.324ZM66.1754 135.324H61.7218V133.123H66.1754V135.324ZM57.2681 135.324H52.8145V133.123H57.2681V135.324ZM48.3609 135.324H43.9073V133.123H48.4292L48.3609 135.324ZM39.4537 135.324H35V133.123H39.4537V135.324ZM30.5464 135.324H26.0928V133.123H30.5464V135.324ZM21.6392 135.324H17.1855V133.123H21.6392V135.324Z" fill="#37352F"/>
<path d="M12.7318 135.325H9.43848V132.031H11.6397V133.123H12.7318V135.325Z" fill="#37352F"/>
<path d="M11.6397 127.561H9.43848V123.107H11.6397V127.561ZM11.6397 118.653H9.43848V114.217H11.6397V118.653ZM11.6397 109.763H9.43848V105.31H11.6397V109.763ZM11.6397 100.856H9.43848V96.4023H11.6397V100.856ZM11.6397 91.9486H9.43848V87.495H11.6397V91.9486ZM11.6397 83.0414H9.43848V78.5878H11.6397V83.0414ZM11.6397 74.1342H9.43848V69.6805H11.6397V74.1342ZM11.6397 65.2269H9.43848V60.8074H11.6397V65.2269ZM11.6397 56.3197H9.43848V51.8661H11.6397V56.3197ZM11.6397 47.4124H9.43848V42.9588H11.6397V47.4124ZM11.6397 38.5052H9.43848V34.0516H11.6397V38.5052ZM11.6397 29.615H9.43848V25.1614H11.6397V29.615ZM11.6397 20.7078H9.43848V16.2542H11.6397V20.7078Z" fill="#37352F"/>
<path d="M11.6397 11.8006H9.43848V8.50732H12.7318V10.7085H11.6397V11.8006Z" fill="#37352F"/>
<path d="M128.509 10.6914H124.055V8.49023H128.509V10.6914ZM119.602 10.6914H115.148V8.49023H119.602V10.6914ZM110.695 10.6914H106.241V8.49023H110.695V10.6914ZM101.787 10.6914H97.3337V8.49023H101.787V10.6914ZM92.8801 10.6914H88.4264V8.49023H92.8801V10.6914ZM83.9899 10.6914H79.5363V8.49023H83.9899V10.6914ZM75.0826 10.6914H70.6119V8.49023H75.0656L75.0826 10.6914ZM66.1754 10.6914H61.7218V8.49023H66.1754V10.6914ZM57.2681 10.6914H52.8145V8.49023H57.2681V10.6914ZM48.3609 10.6914H43.9073V8.49023H48.4292L48.3609 10.6914ZM39.4537 10.6914H35V8.49023H39.4537V10.6914ZM30.5464 10.6914H26.0928V8.49023H30.5464V10.6914ZM21.6392 10.6914H17.1855V8.49023H21.6392V10.6914Z" fill="#37352F"/>
<path d="M136.255 11.8006H134.054V10.7085H132.962V8.50732H136.255V11.8006Z" fill="#37352F"/>
<path d="M136.255 127.561H134.054V123.107H136.255V127.561ZM136.255 118.653H134.054V114.217H136.255V118.653ZM136.255 109.763H134.054V105.31H136.255V109.763ZM136.255 100.856H134.054V96.4023H136.255V100.856ZM136.255 91.9486H134.054V87.495H136.255V91.9486ZM136.255 83.0414H134.054V78.5878H136.255V83.0414ZM136.255 74.1342H134.054V69.6805H136.255V74.1342ZM136.255 65.2269H134.054V60.8074H136.255V65.2269ZM136.255 56.3197H134.054V51.8661H136.255V56.3197ZM136.255 47.4124H134.054V42.9588H136.255V47.4124ZM136.255 38.5052H134.054V34.0516H136.255V38.5052ZM136.255 29.615H134.054V25.1614H136.255V29.615ZM136.255 20.7078H134.054V16.2542H136.255V20.7078Z" fill="#37352F"/>
<path d="M74.3651 86.7272H49.4863L39.8965 113.858H49.3156V116.247H30.0166V113.858H35.9206L67.9492 27.5674H78.1874L109.858 113.858H115.642V116.247H74.604V113.858H83.5283L74.3651 86.7272ZM50.6125 83.9629H73.3584L62.4205 51.0641L50.6125 83.9629Z" fill="#E2F1FF" stroke="#37352F" stroke-linecap="round" stroke-linejoin="round"/>
<path d="M2.27142 142.491H18.7891L18.7891 125.974H2.27142L2.27142 142.491Z" fill="white" stroke="#37352F" stroke-linecap="round" stroke-linejoin="round"/>
<path d="M2.27142 80.1748H18.7891L18.7891 63.6572H2.27142L2.27142 80.1748Z" fill="white" stroke="#37352F" stroke-linecap="round" stroke-linejoin="round"/>
<path d="M64.6728 142.491H81.1904V125.974H64.6728V142.491Z" fill="white" stroke="#37352F" stroke-linecap="round" stroke-linejoin="round"/>
<path d="M126.888 142.491H143.405V125.974H126.888V142.491Z" fill="white" stroke="#37352F" stroke-linecap="round" stroke-linejoin="round"/>
<path d="M126.888 80.1748H143.405V63.6572H126.888V80.1748Z" fill="white" stroke="#37352F" stroke-linecap="round" stroke-linejoin="round"/>
<path d="M126.888 17.8582L143.405 17.8582V1.34051L126.888 1.34051V17.8582Z" fill="white" stroke="#37352F" stroke-linecap="round" stroke-linejoin="round"/>
<path d="M64.6728 17.8582L81.1904 17.8582V1.34051L64.6728 1.34051V17.8582Z" fill="white" stroke="#37352F" stroke-linecap="round" stroke-linejoin="round"/>
<path d="M2.27142 17.8582L18.7891 17.8582L18.7891 1.34051L2.27142 1.34051L2.27142 17.8582Z" fill="white" stroke="#37352F" stroke-linecap="round" stroke-linejoin="round"/>
<path d="M236.129 74.4584L223.621 61.8824L234.184 51.3883C235.847 49.7263 238.103 48.7927 240.454 48.7927C242.806 48.7927 245.062 49.7263 246.725 51.3883C248.387 53.052 249.321 55.3075 249.321 57.6592C249.321 60.0108 248.387 62.2663 246.725 63.9301L236.129 74.4584Z" fill="white" stroke="#37352F" stroke-linecap="round" stroke-linejoin="round"/>
<path d="M240.531 70.1072L189.34 120.872C188.514 121.692 187.535 122.341 186.458 122.783C185.382 123.225 184.229 123.45 183.065 123.446C181.901 123.442 180.749 123.209 179.675 122.76C178.602 122.311 177.627 121.655 176.807 120.829C175.987 120.003 175.337 119.024 174.896 117.947C174.454 116.871 174.229 115.717 174.232 114.553C174.236 113.39 174.47 112.238 174.919 111.164C175.368 110.091 176.024 109.116 176.85 108.296L227.955 57.5142L240.531 70.1072Z" fill="white" stroke="#37352F" stroke-linecap="round" stroke-linejoin="round"/>
<path d="M173.523 124.148C173.103 123.723 172.867 123.15 172.867 122.552C172.867 121.955 173.103 121.382 173.523 120.957L185.092 109.473L188.249 112.664L176.696 124.148C176.275 124.567 175.704 124.802 175.11 124.802C174.515 124.802 173.945 124.567 173.523 124.148Z" fill="#37352F"/>
<path d="M188.351 112.664L176.782 124.165C176.356 124.586 175.781 124.821 175.183 124.817C174.584 124.814 174.012 124.573 173.591 124.148C173.17 123.723 172.935 123.147 172.939 122.549C172.942 121.951 173.182 121.378 173.608 120.957L175.57 119.029L185.177 109.473L188.351 112.664Z" fill="#37352F"/>
<path d="M244.283 72.6566L225.586 53.8289L216.711 62.6422L235.408 81.47L244.283 72.6566Z" fill="white" stroke="#37352F" stroke-linecap="round" stroke-linejoin="round"/>
<path d="M208.401 102.016L189.409 120.786C188.021 122.168 186.213 123.048 184.27 123.289C182.327 123.53 180.359 123.118 178.676 122.117L176.713 124.079C176.288 124.5 175.713 124.735 175.114 124.732C174.516 124.729 173.943 124.488 173.522 124.062C173.102 123.637 172.867 123.062 172.87 122.463C172.873 121.865 173.114 121.292 173.54 120.871L175.502 118.943C174.513 117.252 174.113 115.28 174.366 113.338C174.62 111.395 175.511 109.591 176.901 108.21L183.317 101.845L208.401 102.016Z" fill="#E2F1FF" stroke="#37352F" stroke-linecap="round" stroke-linejoin="round"/>
<path d="M174.29 145.87C167.857 145.87 170.058 133.191 174.29 128.943C178.641 133.294 180.723 145.87 174.29 145.87Z" fill="#E2F1FF" stroke="#37352F" stroke-linecap="round" stroke-linejoin="round"/>
<path d="M158.779 183.871H189.869V156.33H158.779V183.871Z" fill="#E2F1FF" stroke="#37352F" stroke-linecap="round" stroke-linejoin="round"/>
<path d="M119.346 183.871H150.436V156.33H119.346V183.871Z" fill="#DEFDFF" stroke="#37352F" stroke-linecap="round" stroke-linejoin="round"/>
<path d="M79.8943 183.871H110.984V156.33H79.8943V183.871Z" fill="#FFF3E8" stroke="#37352F" stroke-linecap="round" stroke-linejoin="round"/>
<path d="M40.4432 183.871H71.5332V156.33H40.4432V183.871Z" fill="#FBE9F2" stroke="#37352F" stroke-linecap="round" stroke-linejoin="round"/>
<path d="M1.0086 183.871H32.0986V156.33H1.0086L1.0086 183.871Z" fill="white" stroke="#37352F" stroke-linecap="round" stroke-linejoin="round"/>
</g>
<defs>
<clipPath id="clip0_532_1427">
<rect width="250" height="184.237" fill="white" transform="translate(0.155273 0.487305)"/>
</clipPath>
</defs>
</svg>

<svg xmlns="http://www.w3.org/2000/svg" width="251" height="185" fill="none" xmlns:v="https://vecta.io/nano"><g clip-path="url(#A)"><g fill="#37352f"><path d="M136.255 135.325h-3.293v-2.202h1.092v-1.092h2.201v3.294zm-7.746-.001h-4.454v-2.201h4.454v2.201zm-8.907 0h-4.454v-2.201h4.454v2.201zm-8.907 0h-4.454v-2.201h4.454v2.201zm-8.908 0h-4.453v-2.201h4.453v2.201zm-8.907 0h-4.454v-2.201h4.454v2.201zm-8.89 0h-4.454v-2.201h4.454v2.201zm-8.907 0h-4.471v-2.201h4.454l.017 2.201zm-8.907 0h-4.454v-2.201h4.454v2.201zm-8.907 0h-4.454v-2.201h4.454v2.201zm-8.907 0h-4.454v-2.201h4.522l-.068 2.201zm-8.907 0H35v-2.201h4.454v2.201zm-8.907 0h-4.454v-2.201h4.454v2.201zm-8.907 0h-4.454v-2.201h4.454v2.201zm-8.909.001H9.438v-3.294h2.201v1.092h1.092v2.202zm-1.092-7.764H9.438v-4.454h2.201v4.454zm0-8.908H9.438v-4.436h2.201v4.436zm0-8.89H9.438v-4.453h2.201v4.453zm0-8.907H9.438v-4.454h2.201v4.454zm0-8.907H9.438v-4.454h2.201v4.454zm0-8.907H9.438v-4.454h2.201v4.454zm0-8.907H9.438v-4.454h2.201v4.454zm0-8.907H9.438v-4.419h2.201v4.419zm0-8.907H9.438v-4.454h2.201v4.454zm0-8.907H9.438V42.96h2.201v4.454zm0-8.907H9.438v-4.454h2.201v4.454zm0-8.89H9.438v-4.454h2.201v4.454zm0-8.907H9.438v-4.454h2.201v4.454zm0-8.909H9.438V8.507h3.293v2.201H11.64V11.8zm116.869-1.11h-4.454V8.49h4.454v2.201zm-8.907 0h-4.454V8.49h4.454v2.201zm-8.907 0h-4.454V8.49h4.454v2.201zm-8.908 0h-4.453V8.49h4.453v2.201zm-8.907 0h-4.454V8.49h4.454v2.201zm-8.89 0h-4.454V8.49h4.454v2.201zm-8.907 0h-4.471V8.49h4.454l.017 2.201zm-8.907 0h-4.454V8.49h4.454v2.201zm-8.907 0h-4.454V8.49h4.454v2.201zm-8.907 0h-4.454V8.49h4.522l-.068 2.201zm-8.907 0H35V8.49h4.454v2.201zm-8.907 0h-4.454V8.49h4.454v2.201zm-8.907 0h-4.454V8.49h4.454v2.201zm114.614 1.11h-2.201v-1.092h-1.092V8.507h3.293V11.8zm0 115.76h-2.201v-4.454h2.201v4.454zm0-8.908h-2.201v-4.436h2.201v4.436zm0-8.89h-2.201v-4.453h2.201v4.453zm0-8.907h-2.201v-4.454h2.201v4.454zm0-8.907h-2.201v-4.454h2.201v4.454zm0-8.907h-2.201v-4.454h2.201v4.454zm0-8.907h-2.201v-4.454h2.201v4.454zm0-8.907h-2.201v-4.419h2.201v4.419zm0-8.907h-2.201v-4.454h2.201v4.454zm0-8.907h-2.201V42.96h2.201v4.454zm0-8.907h-2.201v-4.454h2.201v4.454zm0-8.89h-2.201v-4.454h2.201v4.454zm0-8.907h-2.201v-4.454h2.201v4.454z"/></g><g stroke="#37352f" stroke-linejoin="round"><path d="M74.365 86.727H49.486l-9.59 27.131h9.419v2.389H30.017v-2.389h5.904l32.029-86.291h10.238l31.671 86.291h5.784v2.389H74.604v-2.389h8.924l-9.163-27.131zm-23.753-2.764h22.746L62.421 51.064 50.613 83.963z" fill="#e2f1ff"/><g fill="#fff"><path d="M2.271 142.491h16.518v-16.517H2.271v16.517zm0-62.316h16.518V63.657H2.271v16.518zm62.402 62.316H81.19v-16.517H64.673v16.517zm62.215 0h16.517v-16.517h-16.517v16.517zm0-62.316h16.517V63.657h-16.517v16.518zm0-62.317h16.517V1.341h-16.517v16.518zm-62.215 0H81.19V1.341H64.673v16.518zm-62.402 0h16.518V1.341H2.271v16.518zm233.858 56.6l-12.508-12.576 10.563-10.494a8.87 8.87 0 0 1 12.541 0c1.662 1.664 2.596 3.919 2.596 6.271s-.934 4.607-2.596 6.271l-10.596 10.528z"/><path d="M240.531 70.107l-51.191 50.765a8.87 8.87 0 0 1-2.882 1.911 8.85 8.85 0 0 1-3.393.663 8.87 8.87 0 0 1-3.39-.686 8.86 8.86 0 0 1-2.868-1.931c-.82-.826-1.47-1.805-1.911-2.882s-.667-2.23-.664-3.394a8.87 8.87 0 0 1 .687-3.389 8.86 8.86 0 0 1 1.931-2.868l51.105-50.782 12.576 12.593z"/></g></g><g fill="#37352f"><path d="M173.523 124.148a2.27 2.27 0 0 1 0-3.191l11.569-11.484 3.157 3.191-11.553 11.484a2.25 2.25 0 0 1-3.173 0z"/><path d="M188.351 112.664l-11.569 11.501c-.426.421-1.001.656-1.599.652s-1.171-.244-1.592-.669a2.25 2.25 0 0 1-.652-1.599c.003-.598.243-1.171.669-1.592l1.962-1.928 9.607-9.556 3.174 3.191z"/></g><g stroke="#37352f" stroke-linejoin="round"><path d="M244.283 72.657l-18.697-18.828-8.875 8.813 18.697 18.828 8.875-8.813z" fill="#fff"/><g fill="#e2f1ff"><path d="M208.401 102.016l-18.992 18.77a8.82 8.82 0 0 1-10.733 1.331l-1.963 1.962c-.425.421-1 .656-1.599.653s-1.171-.244-1.592-.67a2.26 2.26 0 0 1-.652-1.599c.003-.598.244-1.171.67-1.592l1.962-1.928a8.84 8.84 0 0 1-1.136-5.605c.254-1.943 1.145-3.747 2.535-5.128l6.416-6.365 25.084.171zM174.29 145.87c-6.433 0-4.232-12.679 0-16.927 4.351 4.351 6.433 16.927 0 16.927zm-15.511 38.001h31.09V156.33h-31.09v27.541z"/></g><path d="M119.346 183.871h31.09V156.33h-31.09v27.541z" fill="#defdff"/><path d="M79.894 183.871h31.09V156.33h-31.09v27.541z" fill="#fff3e8"/><path d="M40.443 183.871h31.09V156.33h-31.09v27.541z" fill="#fbe9f2"/><path d="M1.009 183.871h31.09V156.33H1.009v27.541z" fill="#fff"/></g></g><defs><clipPath id="A"><path fill="#fff" transform="translate(.155 .487)" d="M0 0h250v184.237H0z"/></clipPath></defs></svg>
